X: 15244
T: Girl Of The House, The
R: jig
M: 6/8
K: Dmixolydian
|:AG|FAD DFG|GA{c}A GEA|D{A}D{G}D AGE|FAD DAG|
~F3 ~G3|~A3 cde|dcA GEA|D{A}D{G}D D:|
|:FA|c2A AGF|FG{A}G {A}GFG|AdB cAG|AdA d2e|
fed cAG|EF{A}F GEA|dcA GEA|D{A}D{G}D D:|

